X:1
T:O, Sing We a Carol
T:O, Sing We a Carol
T:Arthur Henry Brown (1830-1926)
T:William Josiah Irons (1812-1883)
T:Public Domain Courtesy of the Cyber Hymnal™
T:Public Domain Courtesy of the Cyber Hymnal™
C:Arthur Henry Brown (1830-1926)
Z:Public Domain
Z:Courtesy of the Cyber Hymnal™
%%score ( 1 2 ) ( 3 4 )
L:1/8
M:6/4
K:F
V:1 treble 
V:2 treble 
V:3 bass 
V:4 bass 
V:1
 (cB) | [CFA]3 [B,EG] [A,F]2 [DF]3 [CE] [B,D]2 | C4 [DF]2 [EG]4 G2 | [FA]3 [GB] [Ac]2 f4 [DFd]2 | %4
w: 1.~O, *|sing we a car- ol all|blithe and free, And|fit for our Christ- mas|
w: 2.~For *|the an- gel’s song at the|birth of Christ, With|tid- ings of joy be-|
w: 3.~True *|sag- es were they who to|Beth- lehem led, Brought|frank- in- cense, myrrh, and|
w: 4.~Cannot *|we make our offer- ings now|to Christ’s need, When|His poor all around we|
 B8 ([D-A][D-G]^F [DGB]2) z2 dd | c3 B A2 c2 B2 [FA]2 | [DG]4 [DB]2 A4 GG | F3 G [DF]2 D4 [B,D]2 | %8
w: morn, For * * * the world|is as cold as the cold|* can be, Though its|Lord on this day was|
w: gan; And * * * it rang|with a glo- ry to God|* in the~highest, And a|bro- ther- hood true for|
w: gold, Which * * * they of-|fered to Christ on His man-|* ger bed, With a|rev- er- ent love un-|
w: see? “In- * * * as- much|as to them we have done|* the deed,” He will|say, “Ye have done to|
 [A,D]6- [A,D]4 AA | =B2 c2 d2 [G-e]4 d2 | c6- [Ec]2 z2 ee | (f2 e2) [Fd]2 (c2 B2) AA | %12
w: born; * Though its|Lord on this day was|born: ’Tis a win-|try * time for * the rich|
w: man; * Yet~’twas win-|ter time for rich and|poor, When the shep-|herds * came to * the sta-|
w: told. * Yet~’twas win-|ter time for rich and|poor, When the wise|men * knelt at * the sta-|
w: Me.” * He will|say, “Ye have done to|Me.” ’Tis a win-|try * time for * the rich|
 [FA]4 [DF]2 [^CE]4 [=C^F]2 | G3 A B2 [Gc]4 dd | [GB]4 G2 [DG]4 ||"^Refrain" [Gd][Ge] | %16
w: and poor, And who|should be driv’n from a Christ-|ian’s door? *||
w: ble door. Yet ’twas|win- ter time for the rich|and poor, ’Tis|a win-|
w: ble door. Yet ’twas|win- ter time for the rich|and poor, *||
w: and poor, And who|should be driv’n from a Christ-|ian’s door? *||
 (f2 e2) [Fd]2 (c2 B2) [FA][FA] | [FB]4 [Fd]2 [EG]4 [Fc]2 | [Fd]3 [Fc] [FB]2 c4 [FA][FA] | %19
w: |||
w: try * time for * the rich|and poor, And who|should be driv- en from a|
w: |||
w: |||
 [FG]4 [EB]2 [FA]4 [CF]2 | [FB]3 [Fc] [Fd]2 [Fc]4 [FA][FA] | [FG]4 [EG]2 F4 |] %22
w: |||
w: Christ- ian’s door? And|who should be driv’n from a|Christ- ian’s door?|
w: |||
w: |||
V:2
 [CG]2 | x12 | C4 x2 G2 x4 | x6 (A2 F2) x2 | ([D-G]3 E2) x12 | F6 G4 x2 | x6 (^C3 D) E2 | %7
 D4 D4 x4 | x10 [D^F]2 | G6 x2 GF x2 | (E4- F2 G2) x4 | F4 G4 F2 x2 | x12 | D6 x ^F2 x3 | %14
 x4 (D_E) x4 || x2 | F4 G4 x4 | x12 | x6 G2 C2 x2 | x12 | x12 | x6 F4 |] %22
V:3
 E,2 | F,4 F,2 [B,,F,]6 | [A,,F,]4 [D,A,]2 [C,C]4 [E,C]2 | [F,C]4 [F,C]2 [D,D]4 B,,2 | %4
 G,,8 z2 [G,B,]2 x5 | C6 [E,C]4 [F,C]2 | [B,,B,]4 [G,,E,]2 E,4 [^C,A,]2 | %7
 [D,A,]4 [D,A,]2 [B,,G,]4 (D,E,) | (^F,4 G,2 [D,F,]4) D,2 | D2 C2 =B,2 C4 [G,B,]2 | %10
 (C4 A,2 G,2) z2 [B,C]2 | [A,C]4 B,2 [E,G,]4 [F,C]2 | [D,D]4 (A,^G,) [A,,A,]4 [A,,A,]2 | %13
 [B,,G,]3 [A,,^F,] [G,,G,]2 [_E,G,]4 [D,A,]2 | [G,B,]4 (B,C) [G,,B,]4 || [G,B,][G,B,] | %16
 [A,C]4 [B,D]2 (G,2 C2) [F,C][F,C] | [D,B,]4 [B,,G,]2 [C,C]4 [A,,C]2 | %18
 [B,,B,]3 [B,,A,] [D,B,]2 [E,G,]4 [F,A,][F,A,] | [B,,D]4 [C,G,]2 [D,F,]4 [_E,A,]2 | %20
 [D,B,]3 [C,A,] [B,,B,]2 [A,,C]4 [D,D][D,D] | [B,,D]4 (CB,) [F,,F,A,]4 |] %22
V:4
 x2 | x12 | x12 | x12 | x17 | A,3 G, F,2 x6 | x6 (A,,3 =B,,) x2 | x10 G,,2 | D,6- x6 | %9
 G,6 (E,2 F,2) x2 | C,8 x4 | x4 B,2 x6 | x4 D,2 x6 | x12 | x4 G,,2 x4 || x2 | x6 E,4 x2 | x12 | %18
 x12 | x12 | x12 | x4 C,2 x4 |] %22

